src/people-body/body-parts/1F445.svg

<svg id="emoji" viewBox="0 0 72 72" xmlns="http://www.w3.org/2000/svg">
  <g id="grid">
    <path fill="#b3b3b3" d="M68,4V68H4V4H68m4-4H0V72H72V0Z"/>
    <path fill="none" stroke="#00a5ff" stroke-miterlimit="10" stroke-width="0.1" d="M12.923,10.9583H59.0769A1.9231,1.9231,0,0,1,61,12.8814V59.0352a1.9231,1.9231,0,0,1-1.9231,1.9231H12.9231A1.9231,1.9231,0,0,1,11,59.0352V12.8813A1.923,1.923,0,0,1,12.923,10.9583Z"/>
    <rect x="16" y="4" rx="2.2537" width="40" height="64" fill="none" stroke="#00a5ff" stroke-miterlimit="10" stroke-width="0.1"/>
    <rect x="16" y="4" rx="2.2537" width="40" height="64" transform="translate(72) rotate(90)" fill="none" stroke="#00a5ff" stroke-miterlimit="10" stroke-width="0.1"/>
    <circle cx="36" cy="36" r="29" fill="none" stroke="#00a5ff" stroke-miterlimit="10" stroke-width="0.1"/>
  </g>
  <g id="color">
    <path fill="none" stroke="none" d="M15.625,21.75c0,0,18.6733,0,41.75,0"/>
    <path fill="#ea5a47" stroke="none" d="M56.9668,16.7774c0,6-41.7793,7.8191-41.3418,1.0066C5.9695,53.0227,24.9617,60.375,36.5,60.375 S68.3952,54.3545,56.9668,16.7774z"/>
  </g>
  <g id="hair"/>
  <g id="skin"/>
  <g id="skin-shadow"/>
  <g id="line">
    <path fill="none" stroke="#000000" stroke-linecap="round" stroke-linejoin="round" stroke-miterlimit="10" stroke-width="2" d="M62.4167,12.5C56.2812,19.625,48.9688,22.1893,36,22.1875C23.0312,22.1893,15.7188,19.625,9.5833,12.5"/>
    <path fill="none" stroke="#000000" stroke-linecap="round" stroke-linejoin="round" stroke-miterlimit="10" stroke-width="2" d="M62.4167,12.5C56.2812,19.625,48.9688,22.1893,36,22.1875C23.0312,22.1893,15.7188,19.625,9.5833,12.5"/>
    <path fill="none" stroke="#000000" stroke-linecap="round" stroke-linejoin="round" stroke-miterlimit="10" stroke-width="2" d="M57.375,21.75C66.5,55.1875,48.0383,60.375,36.5,60.375s-30-5.1875-20.875-38.625"/>
    <line x1="36.5" x2="36.5" y1="60.375" y2="34.1955" fill="none" stroke="#000000" stroke-linecap="round" stroke-linejoin="round" stroke-miterlimit="10" stroke-width="2"/>
  </g>
</svg>

<svg viewBox="0 0 72 72" xmlns="http://www.w3.org/2000/svg"><path fill="#b3b3b3" d="M68 4v64H4V4h64m4-4H0v72h72V0z"/><path fill="none" stroke="#00a5ff" stroke-miterlimit="10" stroke-width=".1" d="M12.923 10.958h46.154A1.923 1.923 0 0161 12.881v46.154a1.923 1.923 0 01-1.923 1.923H12.923A1.923 1.923 0 0111 59.035V12.881a1.923 1.923 0 011.923-1.923z"/><rect x="16" y="4" rx="2.254" width="40" height="64" fill="none" stroke="#00a5ff" stroke-miterlimit="10" stroke-width=".1"/><rect x="16" y="4" rx="2.254" width="40" height="64" transform="rotate(90 36 36)" fill="none" stroke="#00a5ff" stroke-miterlimit="10" stroke-width=".1"/><circle cx="36" cy="36" r="29" fill="none" stroke="#00a5ff" stroke-miterlimit="10" stroke-width=".1"/><g stroke-linecap="round" stroke-miterlimit="10" stroke-width="6" stroke="#fff" fill="none" stroke-linejoin="round"><path d="M62.417 12.5C56.28 19.625 48.969 22.19 36 22.188c-12.969.001-20.281-2.563-26.417-9.688"/><path d="M62.417 12.5C56.28 19.625 48.969 22.19 36 22.188c-12.969.001-20.281-2.563-26.417-9.688"/><path d="M57.375 21.75C66.5 55.188 48.038 60.375 36.5 60.375s-30-5.188-20.875-38.625M36.5 60.375V34.196"/></g><path fill="none" d="M15.625 21.75h41.75"/><path fill="#ea5a47" d="M56.967 16.777c0 6-41.78 7.82-41.342 1.007C5.97 53.023 24.962 60.375 36.5 60.375s31.895-6.02 20.467-43.598z"/><g fill="none" stroke="#000" stroke-linecap="round" stroke-linejoin="round" stroke-miterlimit="10" stroke-width="2"><path d="M62.417 12.5C56.28 19.625 48.969 22.19 36 22.188c-12.969.001-20.281-2.563-26.417-9.688"/><path d="M62.417 12.5C56.28 19.625 48.969 22.19 36 22.188c-12.969.001-20.281-2.563-26.417-9.688"/><path d="M57.375 21.75C66.5 55.188 48.038 60.375 36.5 60.375s-30-5.188-20.875-38.625M36.5 60.375V34.196"/></g></svg>
